packages/sources/icons/src/vitamix/safari-fill.svg

<svg width="16" height="16" viewBox="0 0 16 16" fill="none" xmlns="http://www.w3.org/2000/svg">
<path fill-rule="evenodd" clip-rule="evenodd" d="M8 14.6666C4.318 14.6666 1.33334 11.682 1.33334 7.99998C1.33334 4.31798 4.318 1.33331 8 1.33331C11.682 1.33331 14.6667 4.31798 14.6667 7.99998C14.6667 11.682 11.682 14.6666 8 14.6666ZM11.1334 4.53332L7.05742 7.05732L4.53342 11.1333L4.46408 11.064L3.52075 12.0067L3.99275 12.4787L4.93542 11.5353L4.86675 11.4667L8.94275 8.94332L11.4667 4.86665L11.5361 4.93599L12.4794 3.99332L12.0074 3.52132L11.0647 4.46465L11.1334 4.53332ZM7.66667 3.33331V1.99998H8.33334V3.33331H7.66667ZM7.66667 12.6666V14H8.33334V12.6666H7.66667ZM5.90592 3.81597L5.39592 2.58397L6.01192 2.32931L6.52192 3.56131L5.90592 3.81597ZM9.47807 12.4386L9.98807 13.6706L10.6041 13.416L10.0941 12.184L9.47807 12.4386ZM9.47807 3.56131L9.98807 2.32931L10.6041 2.58397L10.0941 3.81597L9.47807 3.56131ZM5.9066 12.184L5.3966 13.416L6.0126 13.6706L6.5226 12.4386L5.9066 12.184ZM12.6667 7.66665H14V8.33331H12.6667V7.66665ZM3.33334 7.66665H2V8.33331H3.33334V7.66665ZM12.4153 9.54732L13.6386 10.0767L13.374 10.6887L12.1506 10.1593L12.4153 9.54732ZM3.84935 5.84065L2.62668 5.31132L2.36201 5.92332L3.58535 6.45265L3.85001 5.84065H3.84935ZM12.184 5.90598L13.416 5.39598L13.6707 6.01198L12.4387 6.52198L12.184 5.90598ZM3.56129 9.47799L2.32929 9.98799L2.58396 10.604L3.81596 10.094L3.56129 9.47799ZM11.5353 11.064L12.4786 12.0066L12.0066 12.4786L11.0639 11.5353L11.5353 11.064ZM4.93593 4.46465L3.99326 3.52132L3.52126 3.99332L4.46459 4.93599L4.93593 4.46465ZM9.94866 6.0513L7.54133 7.5413L8.45867 8.45797L9.94866 6.0513Z" fill="#001018"/>
</svg>

<svg width="16" height="16" fill="none" xmlns="http://www.w3.org/2000/svg"><path fill-rule="evenodd" clip-rule="evenodd" d="M8 14.667A6.666 6.666 0 1 1 8 1.334a6.666 6.666 0 0 1 0 13.333zm3.133-10.134L7.057 7.057l-2.524 4.076-.069-.069-.943.943.472.472.942-.944-.068-.068 4.076-2.524 2.524-4.076.07.069.942-.943-.472-.472-.942.944.068.068zm-3.466-1.2V2h.666v1.333h-.666zm0 9.334V14h.666v-1.333h-.666zM5.906 3.816l-.51-1.232.616-.255.51 1.232-.616.255zm3.572 8.623.51 1.232.616-.255-.51-1.232-.616.255zm0-8.878.51-1.232.616.255-.51 1.232-.616-.255zm-3.571 8.623-.51 1.232.616.255.51-1.232-.616-.255zm6.76-4.517H14v.666h-1.333v-.666zm-9.334 0H2v.666h1.333v-.666zm9.082 1.88 1.224.53-.265.612-1.223-.53.264-.612zM3.85 5.841l-1.222-.53-.265.612 1.223.53.265-.612zm8.335.065 1.232-.51.255.616-1.232.51-.255-.616zM3.561 9.478l-1.232.51.255.616 1.232-.51-.255-.616zm7.974 1.586.944.943-.472.472-.943-.944.471-.471zm-6.6-6.6-.942-.943-.472.472.944.943.47-.471zM9.95 6.052 7.54 7.541l.918.917 1.49-2.407z" fill="#001018"/></svg>
